X: 1770
T: the Humors of Castle Bernard   #2
R: hornpipe
%S: s:2 b:12(6+6)
B: O'Neill's 1850 #1770
Z: Bob Safranek, rjs@gsp.org
Z: Compacted via repeats and multiple endings [JC]
M: C|
L: 1/8
K: D
f>e \
| d>fA>d (3DFA d>f | a>fb>f a>gf>e |\
[1,3 d>fA>d (3DFA d>f | (3efe (3dcB A>g :|\
[2,4 d>^de>f (3gec (3ABc | d2 f2 d2 :|
|: A2 \
|: c>de>f {a}g>ec>A | d>cd>e f>de>f |\
[1,3 {a}g>fg>a b>ag>f | (3efd (3cdB A2 A>B :|\
[2,4 g>ba>g (3fed (3edc | d2 f2 d2 :|
